img/sass.svg

<svg width="110" height="126" viewBox="0 0 110 126" fill="none" xmlns="http://www.w3.org/2000/svg">
<g clip-path="url(#clip0_1_29)">
<path fill-rule="evenodd" clip-rule="evenodd" d="M0 52.5405C0 53.4838 0.181356 54.1064 0.282986 54.7115C0.94533 58.6471 2.36902 62.0245 4.05817 65.1053C6.46399 69.4958 9.41037 73.0301 12.4286 76.3538C15.0464 79.2361 17.7177 82.0539 20.3461 84.9147C20.7973 85.4058 21.2239 85.9707 21.7137 86.5732C21.2923 86.922 20.9418 87.2293 20.5774 87.5125C17.1088 90.2068 13.7717 93.2273 10.6956 96.8864C8.84177 99.0924 7.04924 101.437 5.78325 104.5C3.74628 109.427 3.02523 114.676 4.54354 120.281C4.98686 121.918 5.66322 123.332 6.61731 124.378C6.92658 124.716 7.27352 125.051 7.63536 125.183C8.56229 125.517 9.50675 125.736 10.4451 126L13.1023 125.997C16.0408 125.596 18.7156 124.054 21.1328 121.5C24.9106 117.506 27.4558 112.152 28.55 105.281C29.3455 100.287 29.378 95.287 28.4405 90.3155C28.3508 89.8549 28.2473 89.4009 28.1304 88.9549C28.0165 88.5081 27.8824 88.0733 27.7247 87.5165L33.7489 82.2109L33.8391 82.329C33.7296 82.8778 33.6131 83.4252 33.5141 83.9794C32.7983 87.9834 32.3226 92.0572 32.4934 96.2128C32.6757 100.641 33.4826 104.786 35.1752 108.485C36.5437 111.477 39.8046 111.589 41.259 108.586C41.775 107.519 42.2753 106.404 42.6511 105.214C43.6333 102.107 44.5427 98.9461 45.481 95.8063L45.6448 95.232C45.5774 96.7187 45.4985 98.0243 45.4626 99.3312C45.4065 101.372 45.4845 103.401 45.9401 105.343C46.3299 107.004 46.9932 108.245 48.2355 108.464C49.0853 108.613 49.7626 108.017 50.3872 107.261C51.355 106.09 52.1571 104.63 52.7449 102.969C54.4104 98.2846 56.1206 93.6285 57.6301 88.8261C59.2632 83.6319 60.6913 78.2861 62.2078 73.0033L62.4584 72.0667C62.8167 74.223 63.0664 76.335 63.5264 78.3344C64.0608 80.6544 64.7223 82.9194 65.4424 85.1213C65.7832 86.1612 65.7438 86.8362 65.2716 87.7084C63.2951 91.3581 61.3527 95.0522 59.4086 98.7422C58.9784 99.5567 58.55 100.386 58.1917 101.276C57.9743 101.837 57.8314 102.459 57.7712 103.106C57.7109 103.701 57.8034 104.309 58.0292 104.802C58.2551 105.295 58.5969 105.635 58.9828 105.751C59.7618 106.007 60.5605 106.095 61.3554 106.009C64.0687 105.704 66.5323 104.245 68.7104 101.773C71.5323 98.5718 72.4382 94.2028 71.7549 89.0247C71.57 87.6198 71.2432 86.2538 70.9252 84.8999C70.7824 84.2894 70.7727 83.8613 71.0329 83.2924C73.2889 78.3585 75.2164 73.1241 77.0089 67.7688C77.0799 67.5582 77.1526 67.3475 77.277 67.1221C77.8579 71.7514 78.7323 76.2129 80.2988 80.2612C79.4997 81.4407 78.7086 82.5101 77.9928 83.6882C76.4167 86.2833 75.0499 89.1012 74.3368 92.5376C74.0301 94.019 73.7945 95.5245 73.9311 97.1065C74.1432 99.5634 75.4573 101.16 77.0352 100.601C80.4118 99.4037 83.3266 96.9669 85.4565 92.6503C86.8898 89.7439 87.0203 86.5021 86.4202 83.1059C86.2555 82.1827 86.0601 81.2743 85.8498 80.2156C86.683 79.8198 87.4952 79.3448 88.3354 79.0509C92.6976 77.5266 97.0124 77.7923 101.216 80.2049C103.67 81.6138 105.653 83.9714 106.828 87.6802C108.264 92.2142 107.471 96.5161 104.68 99.3822C104.42 99.6493 104.122 99.8599 103.907 100.194C103.838 100.317 103.786 100.46 103.755 100.615C103.724 100.769 103.715 100.932 103.727 101.093C103.745 101.258 104.03 101.465 104.194 101.462C105.111 101.451 105.855 100.715 106.569 99.9579C108.358 98.0619 109.664 95.5111 109.945 92.1525L110 91.9002L109.933 89.713C109.905 89.5869 109.953 89.4621 109.947 89.3668C109.566 84.4759 107.861 80.6826 105.379 77.7091C102.506 74.2673 99.1125 72.8503 95.5239 72.6262C92.6135 72.4344 89.7067 73.1196 86.9686 74.643C86.1828 75.0791 85.4039 75.5957 84.6136 76.0828C84.5076 75.7889 84.3937 75.5071 84.3 75.216C83.4887 72.6719 82.5057 70.2405 82.2884 67.3233C82.1342 65.2516 81.945 63.1825 82.2665 61.1335C82.5758 59.1624 82.9788 57.2248 83.3582 55.2805C83.5535 54.2795 83.416 53.7186 82.7922 53.2677C82.5748 53.1017 82.3429 52.9851 82.1036 52.9216C80.5704 52.5807 79.0582 52.7753 77.5732 53.4368C77.0475 53.6716 76.6655 54.1225 76.549 55.0135C76.4824 55.5247 76.3466 56.0145 76.252 56.519C75.8638 58.6163 75.5887 60.7538 74.9614 62.7518C73.3897 67.7635 71.5954 72.586 69.7591 77.3736C69.5602 77.8902 69.3508 78.3974 69.1002 79.0241C68.4554 76.9576 67.7677 75.1032 67.5591 72.9295C67.3235 70.4713 67.1377 68.0171 67.5372 65.5776C67.8342 63.7581 68.2224 61.9722 68.5798 60.1768C68.7489 59.3234 68.6709 58.8752 68.1663 58.4257C67.9113 58.199 67.6231 57.9977 67.3357 57.9319C65.7636 57.5652 64.1573 57.7664 62.645 58.5196C62.1693 58.7558 61.9196 59.2268 61.7741 59.9782C61.3466 62.1949 60.9821 64.4653 60.382 66.5733C57.9516 75.1073 55.4512 83.597 52.9534 92.0854C52.4321 93.8579 51.8214 95.5688 51.2336 97.2943C51.0846 97.7318 50.8674 98.1169 50.6816 98.5275C50.5327 98.2578 50.4749 98.0726 50.4757 97.8874C50.4801 96.7965 50.3951 95.6734 50.5309 94.6187C50.9479 91.429 51.4089 88.2531 51.9134 85.0931C52.3252 82.4819 52.8045 79.8949 53.2609 77.3012C53.4142 76.433 53.4169 75.6212 53.0095 74.8913C52.3252 73.6688 50.8954 73.4005 50.0473 74.3424L49.6723 74.6672L49.745 73.7413C49.9238 71.7567 49.9597 69.7789 49.604 67.8239C49.1607 65.3871 48.0252 63.9849 46.3746 64.0627C45.6054 64.0989 44.7976 64.3002 44.0853 64.7296C41.0899 66.5276 38.7866 69.7118 36.8258 73.5427C36.6441 73.8984 36.4188 74.1965 36.1626 74.4203C33.628 76.5725 31.0855 78.698 28.5439 80.8315L25.7149 83.2052C24.9562 82.0968 24.2667 80.9469 23.4843 79.9714C21.0951 76.9872 18.6674 74.0768 16.2616 71.1261C14.1291 68.5109 12.0633 65.787 10.4827 62.3237C9.30699 59.7474 8.54915 56.9282 8.47643 53.7427C8.38444 49.6837 9.13615 45.9749 10.4854 42.5224C12.2113 38.1051 14.5654 34.56 17.1535 31.349C19.8914 27.9542 22.8526 25.072 25.9217 22.4407C30.2155 18.76 34.632 15.5021 39.3674 13.3512C44.2229 11.1452 49.1493 9.88254 54.2308 10.7628C56.2283 11.109 58.168 11.8094 59.9492 13.3055C61.3133 14.4501 62.4321 15.9489 62.9525 18.2917C63.4659 20.597 63.4501 22.9331 63.0944 25.2746C62.3716 30.0166 60.6764 33.9254 58.543 37.4181C55.0438 43.1437 50.7754 47.0417 45.9699 49.6166C43.2068 51.0991 40.3321 52.0383 37.4146 52.4117C35.0237 52.7189 32.6827 52.3942 30.4188 51.1208C28.9197 50.2768 27.6143 48.986 26.5647 47.1128C26.3773 46.7773 26.1372 46.4137 25.7876 46.7277C25.4451 47.0363 25.3846 47.5355 25.4994 48.0413C25.6913 48.8813 25.8682 49.7562 26.167 50.5076C26.9178 52.3929 28.013 53.7602 29.2185 54.9329C31.5341 57.1886 34.1221 57.9467 36.8057 58.1225C40.8779 58.3922 44.8511 57.4609 48.7682 55.7877C54.3604 53.3992 59.2229 49.1805 63.1225 42.5251C66.3694 36.9834 68.6884 30.7291 69.1852 23.1773C69.4279 19.4913 69.1694 15.8805 68.0428 12.5179C66.8206 8.87483 64.8773 6.16568 62.5539 4.29921C59.1703 1.58201 55.5187 0 51.7496 0H47.9735C43.409 0 38.996 2.00334 34.7065 4.39313C31.4596 6.20325 28.2758 8.33944 25.1849 10.7037C18.4537 15.855 12.185 22.0663 7.0361 30.607C4.47083 34.8619 2.29893 39.557 1.04959 45.0853C0.672512 46.7358 0.347679 48.4133 0.0762222 50.1118M24.4664 98.4349C24.1747 104.418 22.4041 109.269 19.5103 113.198C17.8824 115.406 16.0154 116.979 13.8409 117.532C13.0524 117.732 12.2455 117.78 11.4806 117.279C10.3899 116.566 10.1454 115.083 10.1244 113.504C10.092 110.986 10.6676 108.711 11.457 106.545C12.4873 103.722 13.9977 101.569 15.6107 99.5593C18.1514 96.3913 20.9077 93.7103 23.7305 91.1797L23.9434 91.0455C24.3797 93.5144 24.5873 95.9525 24.4664 98.4349ZM46.5078 72.4317C46.3019 74.3424 46.0443 76.2545 45.6799 78.1063C44.42 84.5162 42.8018 90.7275 41.0522 96.8556C40.7289 97.9894 40.2585 99.024 39.8493 100.099C39.7797 100.264 39.6964 100.415 39.6014 100.547C39.095 101.313 38.6149 101.273 38.359 100.271C38.0611 99.1058 37.878 97.8593 37.7203 96.6261C37.6143 95.7982 37.6397 94.9287 37.6064 94.0807C37.6406 88.0505 38.8418 82.5705 40.8796 77.4689C41.7198 75.3649 42.6345 73.3602 44.0319 72.0291C44.4666 71.6152 44.9369 71.2963 45.4293 71.0818C46.174 70.7611 46.6313 71.2885 46.5078 72.4317ZM61.5455 101.775L66.9502 92.1095C67.1754 95.6989 63.1917 102.864 61.5455 101.775ZM78.8076 95.2709C78.4256 95.6063 78.0095 95.8479 77.6178 96.1578C77.2595 96.4423 77.1412 96.1551 77.1307 95.6828C77.1254 95.3558 77.1529 95.0296 77.2122 94.7154C77.942 90.7731 79.2851 87.4078 81.2835 84.6705L81.4237 84.5604C82.3743 88.6329 81.2756 93.1052 78.8076 95.2709Z" fill="#CB6699"/>
</g>
<defs>
<clipPath id="clip0_1_29">
<rect width="110" height="126" fill="white"/>
</clipPath>
</defs>
</svg>

<svg xmlns="http://www.w3.org/2000/svg" width="110" height="126" fill="none"><g clip-path="url(#a)"><path fill="#CB6699" fill-rule="evenodd" d="M0 52.54c0 .944.181 1.566.283 2.172.662 3.935 2.086 7.313 3.775 10.393 2.406 4.39 5.352 7.925 8.37 11.249 2.618 2.882 5.29 5.7 7.918 8.56.451.492.878 1.057 1.368 1.66-.422.348-.772.655-1.137.939-3.468 2.694-6.805 5.714-9.881 9.373-1.854 2.206-3.647 4.551-4.913 7.614-2.037 4.927-2.758 10.176-1.24 15.781.444 1.637 1.12 3.051 2.074 4.097.31.338.657.673 1.018.805.927.334 1.872.553 2.81.817l2.657-.003c2.939-.401 5.614-1.943 8.03-4.497 3.779-3.994 6.324-9.348 7.418-16.219.796-4.994.828-9.994-.11-14.966-.09-.46-.193-.914-.31-1.36-.113-.447-.248-.882-.405-1.439l6.024-5.305.09.118c-.11.549-.226 1.096-.325 1.65-.716 4.004-1.191 8.078-1.02 12.234.182 4.428.989 8.573 2.681 12.272 1.369 2.992 4.63 3.104 6.084.101.516-1.067 1.016-2.182 1.392-3.372.982-3.107 1.892-6.268 2.83-9.408l.164-.574c-.068 1.487-.147 2.792-.182 4.1-.056 2.04.021 4.069.477 6.011.39 1.661 1.053 2.902 2.296 3.121.85.149 1.527-.447 2.151-1.203.968-1.171 1.77-2.631 2.358-4.292 1.665-4.684 3.376-9.34 4.885-14.143 1.633-5.194 3.061-10.54 4.578-15.823l.25-.936c.359 2.156.608 4.268 1.068 6.267.535 2.32 1.196 4.585 1.916 6.787.341 1.04.302 1.715-.17 2.587-1.977 3.65-3.92 7.344-5.863 11.034-.43.815-.859 1.644-1.217 2.534a6.844 6.844 0 0 0-.42 1.83c-.061.595.031 1.203.257 1.696.226.493.568.833.954.949a5.62 5.62 0 0 0 2.372.258c2.714-.305 5.177-1.764 7.355-4.236 2.822-3.201 3.728-7.57 3.045-12.748-.185-1.405-.512-2.771-.83-4.125-.143-.61-.152-1.039.108-1.608 2.256-4.933 4.183-10.168 5.976-15.523.07-.21.144-.422.268-.647.58 4.63 1.455 9.09 3.022 13.14-.8 1.179-1.59 2.248-2.306 3.426-1.576 2.595-2.943 5.413-3.656 8.85-.307 1.481-.543 2.987-.406 4.569.212 2.456 1.526 4.053 3.104 3.494 3.377-1.197 6.292-3.634 8.422-7.95 1.433-2.907 1.563-6.149.963-9.545-.165-.923-.36-1.832-.57-2.89.833-.396 1.645-.871 2.485-1.165 4.363-1.524 8.677-1.259 12.881 1.154 2.454 1.409 4.437 3.766 5.612 7.475 1.436 4.534.643 8.836-2.148 11.702-.26.267-.558.478-.773.812a1.44 1.44 0 0 0-.152.421c-.031.154-.04.317-.028.478.018.165.303.372.467.369.917-.011 1.661-.747 2.375-1.504 1.789-1.896 3.095-4.447 3.376-7.805L110 91.9l-.067-2.187c-.028-.126.02-.25.014-.346-.381-4.891-2.086-8.684-4.568-11.658-2.873-3.442-6.267-4.859-9.855-5.083-2.91-.192-5.817.494-8.555 2.017-.786.436-1.565.953-2.355 1.44-.106-.294-.22-.576-.314-.867-.811-2.544-1.794-4.975-2.012-7.893-.154-2.071-.343-4.14-.022-6.19.31-1.97.713-3.908 1.092-5.852.195-1.002.058-1.562-.566-2.013a1.97 1.97 0 0 0-.688-.346c-1.534-.341-3.046-.147-4.53.515-.526.235-.909.686-1.025 1.577-.067.51-.202 1-.297 1.505-.388 2.097-.663 4.235-1.29 6.233-1.572 5.011-3.367 9.834-5.203 14.622-.199.516-.408 1.023-.659 1.65-.645-2.066-1.332-3.92-1.54-6.094-.237-2.459-.422-4.913-.023-7.352.297-1.82.685-3.606 1.043-5.401.169-.854.09-1.302-.414-1.751-.255-.227-.543-.428-.83-.494-1.572-.367-3.179-.166-4.691.588-.476.236-.725.707-.87 1.458-.428 2.217-.793 4.487-1.393 6.595-2.43 8.534-4.93 17.024-7.429 25.512-.52 1.773-1.132 3.484-1.72 5.21-.148.437-.366.822-.551 1.233-.15-.27-.207-.455-.206-.64.004-1.092-.08-2.215.055-3.27.417-3.189.878-6.365 1.382-9.525.412-2.611.892-5.198 1.348-7.792.153-.868.156-1.68-.252-2.41-.684-1.222-2.114-1.49-2.962-.549l-.375.325.073-.926c.179-1.984.215-3.962-.141-5.917-.443-2.437-1.579-3.84-3.23-3.761-.769.036-1.576.237-2.289.667-2.995 1.798-5.298 4.982-7.26 8.813a2.924 2.924 0 0 1-.662.877c-2.535 2.153-5.077 4.278-7.62 6.412l-2.828 2.373c-.759-1.108-1.448-2.258-2.23-3.234-2.39-2.984-4.818-5.894-7.223-8.845-2.133-2.615-4.199-5.339-5.78-8.802-1.175-2.577-1.933-5.396-2.006-8.581-.092-4.06.66-7.768 2.01-11.22 1.725-4.418 4.08-7.963 6.668-11.174 2.737-3.395 5.699-6.277 8.768-8.908 4.293-3.681 8.71-6.939 13.445-9.09 4.856-2.206 9.782-3.468 14.864-2.588 1.997.346 3.937 1.046 5.718 2.543 1.364 1.144 2.483 2.643 3.004 4.986.513 2.305.497 4.641.141 6.983-.722 4.742-2.418 8.65-4.551 12.143-3.5 5.726-7.768 9.624-12.573 12.199-2.763 1.482-5.638 2.421-8.555 2.795-2.391.307-4.732-.018-6.996-1.291-1.5-.844-2.805-2.135-3.854-4.008-.188-.336-.428-.7-.777-.385-.343.308-.403.807-.289 1.313.192.84.37 1.715.668 2.467.75 1.885 1.846 3.252 3.051 4.425 2.316 2.256 4.904 3.014 7.588 3.19 4.072.27 8.045-.662 11.962-2.335 5.592-2.389 10.455-6.607 14.355-13.263 3.246-5.542 5.565-11.796 6.062-19.348.243-3.686-.016-7.296-1.142-10.66-1.222-3.642-3.166-6.351-5.49-8.218C59.17 1.582 55.52 0 51.75 0h-3.776c-4.565 0-8.978 2.003-13.267 4.393-3.247 1.81-6.431 3.946-9.522 6.31-6.731 5.152-13 11.363-18.149 19.904-2.565 4.255-4.737 8.95-5.986 14.478a77.468 77.468 0 0 0-.974 5.027m24.39 48.323c-.291 5.983-2.062 10.834-4.956 14.763-1.628 2.208-3.495 3.781-5.67 4.334-.788.2-1.595.248-2.36-.253-1.09-.713-1.335-2.196-1.356-3.775-.032-2.518.544-4.793 1.333-6.959 1.03-2.823 2.54-4.976 4.154-6.986 2.54-3.168 5.297-5.849 8.12-8.38l.212-.133c.437 2.468.644 4.906.523 7.389Zm22.042-26.003c-.206 1.91-.464 3.822-.828 5.674-1.26 6.41-2.878 12.622-4.628 18.75-.323 1.133-.794 2.168-1.203 3.243-.07.165-.153.316-.248.448-.506.766-.986.726-1.242-.276-.298-1.165-.481-2.412-.639-3.645-.106-.828-.08-1.697-.114-2.545.035-6.03 1.236-11.51 3.274-16.612.84-2.104 1.755-4.109 3.152-5.44a4.845 4.845 0 0 1 1.397-.947c.745-.32 1.202.207 1.079 1.35Zm15.037 29.343 5.405-9.666c.225 3.59-3.758 10.755-5.405 9.666Zm17.263-6.504c-.382.335-.799.577-1.19.887-.358.284-.477-.003-.487-.475a4.813 4.813 0 0 1 .081-.968c.73-3.942 2.073-7.307 4.072-10.044l.14-.11c.95 4.072-.148 8.544-2.616 10.71Z" clip-rule="evenodd"/></g><defs><clipPath id="a"><path fill="#fff" d="M0 0h110v126H0z"/></clipPath></defs></svg>
